Sedona/img/favicons/blank/Hotel.svg

<svg width="32" height="32" viewBox="0 0 32 32" fill="none" xmlns="http://www.w3.org/2000/svg">
<rect width="32" height="32" fill="#81B3D3"/>
<path fill-rule="evenodd" clip-rule="evenodd" d="M11.3191 6.04254C11.3191 5.49026 10.8714 5.04254 10.3191 5.04254H7C6.44772 5.04254 6 5.49026 6 6.04254V30C6 30.5523 6.44772 31 7 31L12 31C12.5523 31 13 30.5523 13 30V26C13 25.4477 13.4477 25 14 25H18C18.5523 25 19 25.4477 19 26V30C19 30.5523 19.4477 31 20 31L25.2128 31C25.7651 31 26.2128 30.5523 26.2128 30V6.04254C26.2128 5.49026 25.7651 5.04254 25.2128 5.04254H22.1063C21.554 5.04254 21.1063 5.49026 21.1063 6.04254V9.14888C21.1063 9.70116 20.6586 10.1489 20.1063 10.1489H12.3191C11.7668 10.1489 11.3191 9.70116 11.3191 9.14888V6.04254ZM21.7447 7.59575C21.7447 7.36074 21.9352 7.17022 22.1702 7.17022H23.8724C24.1074 7.17022 24.2979 7.36074 24.2979 7.59575V9.29788C24.2979 9.5329 24.1074 9.72341 23.8724 9.72341H22.1702C21.9352 9.72341 21.7447 9.5329 21.7447 9.29788V7.59575ZM8.55321 11.6383C8.3182 11.6383 8.12768 11.8288 8.12768 12.0638V13.766C8.12768 14.001 8.3182 14.1915 8.55321 14.1915H10.2553C10.4904 14.1915 10.6809 14.001 10.6809 13.766V12.0638C10.6809 11.8288 10.4904 11.6383 10.2553 11.6383H8.55321ZM22.1702 11.6383C21.9352 11.6383 21.7447 11.8288 21.7447 12.0638V13.766C21.7447 14.001 21.9352 14.1915 22.1702 14.1915H23.8724C24.1074 14.1915 24.2979 14.001 24.2979 13.766V12.0638C24.2979 11.8288 24.1074 11.6383 23.8724 11.6383H22.1702ZM22.1702 16.1064C21.9352 16.1064 21.7447 16.2969 21.7447 16.5319V18.2341C21.7447 18.4691 21.9352 18.6596 22.1702 18.6596H23.8724C24.1074 18.6596 24.2979 18.4691 24.2979 18.2341V16.5319C24.2979 16.2969 24.1074 16.1064 23.8724 16.1064H22.1702ZM21.7447 21C21.7447 20.765 21.9352 20.5745 22.1702 20.5745H23.8724C24.1074 20.5745 24.2979 20.765 24.2979 21V22.7021C24.2979 22.9372 24.1074 23.1277 23.8724 23.1277H22.1702C21.9352 23.1277 21.7447 22.9372 21.7447 22.7021V21ZM8.55321 7.17022C8.3182 7.17022 8.12768 7.36074 8.12768 7.59575V9.29788C8.12768 9.5329 8.3182 9.72341 8.55321 9.72341H10.2553C10.4904 9.72341 10.6809 9.5329 10.6809 9.29788V7.59575C10.6809 7.36074 10.4904 7.17022 10.2553 7.17022H8.55321ZM21.7447 25.4681C21.7447 25.2331 21.9352 25.0426 22.1702 25.0426H23.8724C24.1074 25.0426 24.2979 25.2331 24.2979 25.4681V27.1702C24.2979 27.4053 24.1074 27.5958 23.8724 27.5958H22.1702C21.9352 27.5958 21.7447 27.4053 21.7447 27.1702V25.4681ZM8.55321 16.1064C8.3182 16.1064 8.12768 16.2969 8.12768 16.5319V18.2341C8.12768 18.4691 8.3182 18.6596 8.55321 18.6596H10.2553C10.4904 18.6596 10.6809 18.4691 10.6809 18.2341V16.5319C10.6809 16.2969 10.4904 16.1064 10.2553 16.1064H8.55321ZM8.12768 21C8.12768 20.765 8.3182 20.5745 8.55321 20.5745H10.2553C10.4904 20.5745 10.6809 20.765 10.6809 21V22.7021C10.6809 22.9372 10.4904 23.1277 10.2553 23.1277H8.55321C8.3182 23.1277 8.12768 22.9372 8.12768 22.7021V21ZM17.4894 20.5745C17.2544 20.5745 17.0639 20.765 17.0639 21V22.7021C17.0639 22.9372 17.2544 23.1277 17.4894 23.1277H19.1915C19.4265 23.1277 19.617 22.9372 19.617 22.7021V21C19.617 20.765 19.4265 20.5745 19.1915 20.5745H17.4894ZM17.2766 16.5319C17.2766 16.2969 17.4671 16.1064 17.7022 16.1064H19.4043C19.6393 16.1064 19.8298 16.2969 19.8298 16.5319V18.2341C19.8298 18.4691 19.6393 18.6596 19.4043 18.6596H17.7022C17.4671 18.6596 17.2766 18.4691 17.2766 18.2341V16.5319ZM17.7022 11.6383C17.4671 11.6383 17.2766 11.8288 17.2766 12.0638V13.766C17.2766 14.001 17.4671 14.1915 17.7022 14.1915H19.4043C19.6393 14.1915 19.8298 14.001 19.8298 13.766V12.0638C19.8298 11.8288 19.6393 11.6383 19.4043 11.6383H17.7022ZM12.5958 21C12.5958 20.765 12.7863 20.5745 13.0213 20.5745H14.7234C14.9584 20.5745 15.149 20.765 15.149 21V22.7021C15.149 22.9372 14.9584 23.1277 14.7234 23.1277H13.0213C12.7863 23.1277 12.5958 22.9372 12.5958 22.7021V21ZM13.2341 16.1064C12.9991 16.1064 12.8085 16.2969 12.8085 16.5319V18.2341C12.8085 18.4691 12.9991 18.6596 13.2341 18.6596H14.9362C15.1712 18.6596 15.3617 18.4691 15.3617 18.2341V16.5319C15.3617 16.2969 15.1712 16.1064 14.9362 16.1064H13.2341ZM12.8085 12.0638C12.8085 11.8288 12.9991 11.6383 13.2341 11.6383H14.9362C15.1712 11.6383 15.3617 11.8288 15.3617 12.0638V13.766C15.3617 14.001 15.1712 14.1915 14.9362 14.1915H13.2341C12.9991 14.1915 12.8085 14.001 12.8085 13.766V12.0638ZM8.5532 25C8.31819 25 8.12767 25.1905 8.12767 25.4255V27.1277C8.12767 27.3627 8.31819 27.5532 8.5532 27.5532H10.2553C10.4903 27.5532 10.6809 27.3627 10.6809 27.1277V25.4255C10.6809 25.1905 10.4903 25 10.2553 25H8.5532Z" fill="white"/>
<path fill-rule="evenodd" clip-rule="evenodd" d="M13.1702 1C12.6179 1 12.1702 1.44772 12.1702 2V8.08511C12.1702 8.6374 12.6179 9.08511 13.1702 9.08511H19.2553C19.8076 9.08511 20.2553 8.6374 20.2553 8.08511V2C20.2553 1.44772 19.8076 1 19.2553 1H13.1702ZM15.0345 5.52767H17.6037V8.02129H18.9787V2.06384H17.6037V4.48937H15.0345V2.06384H13.6595V8.02129H15.0345V5.52767Z" fill="white"/>
</svg>

<svg width="32" height="32" fill="none" xmlns="http://www.w3.org/2000/svg">
  <path fill="#81B3D3" d="M0 0h32v32H0z"/>
  <path fill-rule="evenodd" clip-rule="evenodd" d="M11.3 6c0-.5-.4-1-1-1H7a1 1 0 0 0-1 1v24c0 .6.4 1 1 1h5c.6 0 1-.4 1-1v-4c0-.6.4-1 1-1h4c.6 0 1 .4 1 1v4c0 .6.4 1 1 1h5.2c.6 0 1-.4 1-1V6c0-.5-.4-1-1-1h-3a1 1 0 0 0-1 1v3.1c0 .6-.5 1-1 1h-7.9a1 1 0 0 1-1-1v-3Zm10.4 1.6c0-.2.2-.4.5-.4h1.7c.2 0 .4.2.4.4v1.7c0 .2-.2.4-.4.4h-1.7a.4.4 0 0 1-.5-.4V7.6Zm-13.1 4c-.3 0-.5.2-.5.5v1.7c0 .2.2.4.5.4h1.7c.2 0 .4-.2.4-.4V12c0-.3-.2-.5-.4-.5H8.6Zm13.6 0c-.3 0-.5.2-.5.5v1.7c0 .2.2.4.5.4h1.7c.2 0 .4-.2.4-.4V12c0-.3-.2-.5-.4-.5h-1.7Zm0 4.5c-.3 0-.5.2-.5.4v1.7c0 .3.2.5.5.5h1.7c.2 0 .4-.2.4-.5v-1.7c0-.2-.2-.4-.4-.4h-1.7Zm-.5 4.9c0-.2.2-.4.5-.4h1.7c.2 0 .4.2.4.4v1.7c0 .2-.2.4-.4.4h-1.7a.4.4 0 0 1-.5-.4V21ZM8.6 7.2c-.3 0-.5.2-.5.4v1.7c0 .2.2.4.5.4h1.7c.2 0 .4-.2.4-.4V7.6c0-.2-.2-.4-.4-.4H8.6Zm13.1 18.3c0-.3.2-.5.5-.5h1.7c.2 0 .4.2.4.5v1.7c0 .2-.2.4-.4.4h-1.7a.4.4 0 0 1-.5-.4v-1.7ZM8.6 16c-.3 0-.5.2-.5.4v1.7c0 .3.2.5.5.5h1.7c.2 0 .4-.2.4-.5v-1.7c0-.2-.2-.4-.4-.4H8.6ZM8 21c0-.2.2-.4.5-.4h1.7c.2 0 .4.2.4.4v1.7c0 .2-.2.4-.4.4H8.6a.4.4 0 0 1-.5-.4V21Zm9.4-.4c-.2 0-.4.2-.4.4v1.7c0 .2.2.4.4.4h1.7c.2 0 .4-.2.4-.4V21c0-.2-.2-.4-.4-.4h-1.7Zm-.2-4c0-.3.2-.5.4-.5h1.7c.2 0 .4.2.4.4v1.7c0 .3-.2.5-.4.5h-1.7a.4.4 0 0 1-.4-.5v-1.7Zm.4-5c-.2 0-.4.2-.4.5v1.7c0 .2.2.4.4.4h1.7c.2 0 .4-.2.4-.4V12c0-.3-.2-.5-.4-.5h-1.7ZM12.6 21c0-.2.2-.4.4-.4h1.7c.3 0 .4.2.4.4v1.7c0 .2-.1.4-.4.4H13a.4.4 0 0 1-.4-.4V21Zm.6-4.9c-.2 0-.4.2-.4.4v1.7c0 .3.2.5.4.5H15c.3 0 .5-.2.5-.5v-1.7c0-.2-.2-.4-.5-.4h-1.7Zm-.4-4c0-.3.2-.5.4-.5H15c.3 0 .5.2.5.5v1.7c0 .2-.2.4-.5.4h-1.7a.4.4 0 0 1-.4-.4V12ZM8.6 25c-.3 0-.5.2-.5.4v1.7c0 .3.2.5.5.5h1.7c.2 0 .4-.2.4-.5v-1.7c0-.2-.2-.4-.4-.4H8.6Z" fill="#fff"/>
  <path fill-rule="evenodd" clip-rule="evenodd" d="M13.2 1a1 1 0 0 0-1 1v6c0 .6.4 1 1 1h6c.6 0 1-.4 1-1V2c0-.6-.4-1-1-1h-6ZM15 5.5h2.6V8H19V2h-1.4v2.5H15V2h-1.3v6H15V5.4Z" fill="#fff"/>
</svg>
